X: 1
T:Chicago Jig
R:Double Jig
M:6/8
K:G
G|F2D DED|F2D DED|F2D DED|c2G G~G2|
F2D DED|F2D DED|B~B2 cAF|AGF G2:|
A|B2G cde|dcB ABc|B2G GBd|F2D DED|
B2G cde|dcB ABc|B~B2 cAF|AGF G2:|
